X:22
T:Lucy Campbell
R:reel
O:Irish - Scottish roots
D:An Historic Recording of Irish Music
H:first recorded by Micheal Coleman
Z:Paul Stewart Cranford (P.S.C.), <http://www.cranfordpub.com>                       
L:1/8
Q:333
M:C|
K:D
B|AD (3(FED) D3 B|BAFA B(E ~E2)|AD (3(FED) dBed|dBAF ADD:|
||B|dBAB d2 fe|d2 cA B(E ~E2)|dBAB dBed|dBAF ADDA|
dBAB defe|d(B ~B2) g(B ~B2)|dBAB dBed|dBAF ADD z||
||~a3 f defg|a(f ~f2) bgeg|afaf dffe|dBAF ADD z|
~a3 f defg|a(f ~f2) bgeg|afaf gf (3(gfe)|dBAF ADD||
||A|d(f ~f2) dfef|d(f ~f2) afef|dffe ~f3 e|dBAF ADDA|
d(f ~f2) dfef|d(f ~f2) afef|gf (3(gfe) fgfe|dBAF ADD|]
